src/distro-icons/ubuntu-budgie.svg

<svg width="512" height="512" fill="none" xmlns="http://www.w3.org/2000/svg">
<circle cx="256" cy="256" r="256" fill="#fff"/>
<path d="M256 512c141.385 0 256-114.615 256-256S397.385 0 256 0 0 114.615 0 256s114.615 256 256 256Z" fill="#404552"/>
<path d="M344 300c-35.112 0-64.63 24.944-74 58-1.978 6.978-3.339 9.368-6 14-3.431 5.972-10.397 14.598-20 20-7.812 4.395-14.545 8.135-24.606 6.619-2.619-.394-7.259-1.124-11.902-3.795-7.4-4.26-9.84-8-15.5-18.82.808 11.548-.681 15.761 5 36 11.308 40.288 54.762 72 106 72 37.982 0 73.184-15.83 92.992-39.996 7.245-8.838 12.7-15.812 18-28 4.823-11.09 6.005-25.306 6.008-38.004.012-43.112-34.026-78-76-78L344 300Z" fill="#fff"/>
</svg>

<svg width="512" height="512" viewBox="0 0 512 512" fill="none" xmlns="http://www.w3.org/2000/svg">
<circle cx="256" cy="256" r="256" fill="white"/>
<path d="M256 512C397.385 512 512 397.385 512 256C512 114.615 397.385 0 256 0C114.615 0 0 114.615 0 256C0 397.385 114.615 512 256 512Z" fill="#404552"/>
<path d="M344 300C308.888 300 279.37 324.944 270 358C268.022 364.978 266.661 367.368 264 372C260.569 377.972 253.603 386.598 244 392C236.188 396.395 229.455 400.135 219.394 398.619C216.775 398.225 212.135 397.495 207.492 394.824C200.092 390.564 197.652 386.824 191.992 376.004C192.8 387.552 191.311 391.765 196.992 412.004C208.3 452.292 251.754 484.004 302.992 484.004C340.974 484.004 376.176 468.174 395.984 444.008C403.229 435.17 408.684 428.196 413.984 416.008C418.807 404.918 419.989 390.702 419.992 378.004C420.004 334.892 385.966 300.004 343.992 300.004L344 300Z" fill="white"/>
</svg>
